X:1
T:Deh gira te
T:Deh girate
T:Piero Benedetti
T:Source : Musische di Piero Benedetti---Fiorenza---Heredes di C.Marescotti---1611. Editor : André Vierendeels (26/05/15).
T:Notes : Original clefs : C1, F4 Figures in BC are notated in original print
C:Piero Benedetti
%%score 1 2
L:1/8
Q:1/4=120
M:4/4
K:C
V:1 treble nm="Soprano" snm="S"
V:2 bass nm="BC" snm="BC"
V:1
 B2 B2 c<B c<d | e2 d2 c2 d/c/B/A/ | B4 B4 | c2 c2 c4- | c2 d2 d3 c | c4 c4 | c2 c2 e4- | eedc B4 | %8
w: Deh gi- ra- * * *|te lu- ci'a- ma- * * *|* te|pie- to- set-|* to quel bel|guar- do|de mi fug-|* ge che mi strug-|
w: Ne si nie- * * *|ghi a miei pre- * * *|* ghi|per pie- ta|_ giu- sta mer-|ce- de,|ahi lan- gui-|* re ahi pe- ri-|
w: O pu- pil- * * *|le che tran- quil- * * *|* le|se- re- na-|* te l'a- ria'in-|tor- no,|sa- ra mai|_ che'i be- i ra-|
w: Dol- ce scoc- * * *|chi da qua gl'oc- * * *|* chi,|piu del sol|_ va- ghi'et ar-|den- ti,|pio splen- do-|* re che ri- sto-|
w: Deh fiam- meg- * * *|gi deh lam- peg- * * *|* gi,|in quel la-|* bro'un dol- ce|ri- so,|in quel la-|* bro di ci- na-|
w: A- mo- ro- sa _ _|_ gra- ti- o- * * *|* sa,|di Ru- bi-|* ni co- lo-|ri- ta,|toc- ca'il ven-|* to d'un ac- cen-|
w: Se vi'a- pri- * * *|te se sco- pri- * * *|* te,|bel- le ro-|* se'a- ma- t'e|ca- re,|vo- stre per-|* le a- ve der-|
 B4 G2 G2 | G6 A2 | A3 G G4 | G4 B2 d2 | c<B c<d e4- | e2 A2 A3 G | G4 G4 :| %15
w: ge, on- de|n'un m'ag-|ghiac- cio'ed ar-|do, ond' in|un _ _ _ _|_ m'ag- ghiac- cio'et|ar- do.|
w: re, do- ve'a-|man- do|tan- ta fe-|de, do- ve'a-|man- * * * *|* do tan- ta|fe- de.|
w: i, fac- ciam|le- to'un|mio gior- no|sol, pac- ciam|le- * * * *|* to'un mio gior-|no sol.|
w: re, ca- re|lu- c'i|miei tor- men-|ti, ca- re|lu- * * * *|* c'i miei tor-|men- ti.|
w: bro, che m'ha'il|cor del|seen di- vi-|sio, che m'ha'il|cor _ _ _ _|_ del sen di-|vi- sio.|
w: to, boc- ca'on-|d'es- ca|la mia vi-|ta, boc- ca'on-|d'es- * * * *|* ca la mia|vi- ta.|
w: le, ri- de-|ra la|ter- ra'el ma-|re, ri- de|ra _ _ _ _|_ le ter- ra'el|ma- re.|
V:2
 G,,2 G,,2 C,4- | C,2 D,2 E,2 ^F,2 | G,4 G,4 | E,4 F,4 | F,4 G,2 G,2 | C,8 | C,6 D,2 | %7
 E,2 ^F,2 G,4 | G,4 B,,4 | C,8 |"^4""^#" D,2 D,2 G,,4 | G,,4 G,2 D,2 | E,2 B,,2 C,4 | %13
"^4""^#" ^C,4 D,2 D,2 | G,,4 G,,4 :| %15

